icons/glyphs/glyph-gwenview2.svg

<?xml version="1.0" encoding="UTF-8" standalone="no"?><svg height="16" viewBox="0 0 4.2333332 4.2333332" width="16" xmlns="http://www.w3.org/2000/svg"><sodipodi:namedview/><metadata><rdf:RDF><cc:Work><dc:format>image/svg+xml</dc:format><dc:type/><dc:title/></cc:Work></rdf:RDF></metadata><path d="m8 1.6171875a8.2164112 8.2164112 0 0 0 -8 6.3769531 8.2164112 8.2164112 0 0 0 8 6.3886714 8.2164112 8.2164112 0 0 0 8-6.3769526 8.2164112 8.2164112 0 0 0 -8-6.3886719zm0 1.7382813a4.6436358 4.6436358 0 0 1 4.644531 4.6445312 4.6436358 4.6436358 0 0 1 -4.644531 4.644531 4.6436358 4.6436358 0 0 1 -4.6445312-4.644531 4.6436358 4.6436358 0 0 1 4.6445312-4.6445312zm2.251953 2.4609374a.88080672.88080672 0 0 0 -.8808592.8808594.88080672.88080672 0 0 0  .8808592.8808594.88080672.88080672 0 0 0  .880859-.8808594.88080672.88080672 0 0 0 -.880859-.8808594zm-4.5234374.2363282-1.4394531 2.6953125c.3793614 1.7529751 1.9310304 3.0055171 3.7246094 3.0078121 1.5525612.017197 3.1237971-1.259125 3.6015621-2.3828121l-1.177734-.0585938-1.8203125-1.8007812-1.3339844 1.1992187-1.5546875-2.6601562z" fill="#d0d0d0" transform="scale(.26458333)"/></svg>

<?xml version="1.0" encoding="UTF-8" standalone="no"?>
<!-- Created with Inkscape (http://www.inkscape.org/) -->

<svg
   xmlns:dc="http://purl.org/dc/elements/1.1/"
   xmlns:cc="http://creativecommons.org/ns#"
   xmlns:rdf="http://www.w3.org/1999/02/22-rdf-syntax-ns#"
   xmlns:svg="http://www.w3.org/2000/svg"
   xmlns="http://www.w3.org/2000/svg"
   xmlns:sodipodi="http://sodipodi.sourceforge.net/DTD/sodipodi-0.dtd"
   xmlns:inkscape="http://www.inkscape.org/namespaces/inkscape"
   width="16"
   height="16"
   viewBox="0 0 4.2333332 4.2333332"
   version="1.1"
   id="svg8"
   inkscape:version="0.92+devel (4546dc857e, 2017-07-25, custom)"
   sodipodi:docname="glyph-gwenview2.svg">
  <defs
     id="defs2" />
  <sodipodi:namedview
     id="base"
     pagecolor="#002466"
     bordercolor="#ffffff"
     borderopacity="0.38039216"
     inkscape:pageopacity="1"
     inkscape:pageshadow="2"
     inkscape:zoom="51.5"
     inkscape:cx="10.094581"
     inkscape:cy="7.9162778"
     inkscape:document-units="px"
     inkscape:current-layer="svg8"
     inkscape:document-rotation="0"
     showgrid="false"
     inkscape:showpageshadow="false"
     borderlayer="true"
     inkscape:window-width="1920"
     inkscape:window-height="1051"
     inkscape:window-x="0"
     inkscape:window-y="0"
     inkscape:window-maximized="1"
     units="px" />
  <metadata
     id="metadata5">
    <rdf:RDF>
      <cc:Work
         rdf:about="">
        <dc:format>image/svg+xml</dc:format>
        <dc:type
           rdf:resource="http://purl.org/dc/dcmitype/StillImage" />
        <dc:title></dc:title>
      </cc:Work>
    </rdf:RDF>
  </metadata>
  <path
     style="color:#000000;font-variation-settings:normal;clip-rule:nonzero;display:inline;overflow:visible;visibility:visible;opacity:1;isolation:auto;mix-blend-mode:normal;color-interpolation:sRGB;color-interpolation-filters:linearRGB;solid-color:#000000;solid-opacity:1;vector-effect:none;fill:#d0d0d0;fill-opacity:1;fill-rule:nonzero;stroke:none;stroke-width:1;stroke-linecap:butt;stroke-linejoin:miter;stroke-miterlimit:4;stroke-dasharray:none;stroke-dashoffset:0;stroke-opacity:1;marker:none;color-rendering:auto;image-rendering:auto;shape-rendering:auto;text-rendering:auto;enable-background:accumulate"
     d="M 8 1.6171875 A 8.2164112 8.2164112 0 0 0 0 7.9941406 A 8.2164112 8.2164112 0 0 0 8 14.382812 A 8.2164112 8.2164112 0 0 0 16 8.0058594 A 8.2164112 8.2164112 0 0 0 8 1.6171875 z M 8 3.3554688 A 4.6436358 4.6436358 0 0 1 12.644531 8 A 4.6436358 4.6436358 0 0 1 8 12.644531 A 4.6436358 4.6436358 0 0 1 3.3554688 8 A 4.6436358 4.6436358 0 0 1 8 3.3554688 z M 10.251953 5.8164062 A 0.88080672 0.88080672 0 0 0 9.3710938 6.6972656 A 0.88080672 0.88080672 0 0 0 10.251953 7.578125 A 0.88080672 0.88080672 0 0 0 11.132812 6.6972656 A 0.88080672 0.88080672 0 0 0 10.251953 5.8164062 z M 5.7285156 6.0527344 L 4.2890625 8.7480469 C 4.6684239 10.501022 6.2200929 11.753564 8.0136719 11.755859 C 9.5662331 11.773056 11.137469 10.496734 11.615234 9.3730469 L 10.4375 9.3144531 L 8.6171875 7.5136719 L 7.2832031 8.7128906 L 5.7285156 6.0527344 z "
     transform="scale(0.26458333)"
     id="path25"
     inkscape:label="#" />
</svg>
